svgs/light/cat.svg

<svg xmlns="http://www.w3.org/2000/svg" viewBox="0 0 576 512"><!-- Font Awesome Pro 6.0.0-alpha2 by @fontawesome - https://fontawesome.com License - https://fontawesome.com/license (Commercial License) --><path d="M544 0C534.75 0 525.625 4.125 519.375 11.5L475.625 64H452.375L408.625 11.5C399.506 0.707 384.016 -3.438 369.99 3.191C358.582 8.584 352 20.881 352 33.498V160H336C232.125 160 141.875 218.5 96 304.25V176C96 131.875 60.125 96 16 96C7.125 96 0 103.125 0 112S7.125 128 16 128C42.5 128 64 149.5 64 176V432C64 476.182 99.816 512 144 512H351.271C369.594 512 384.389 496.893 383.984 478.574C383.27 446.215 358.287 419.578 326.625 416.375L416 376.625V464C416 490.4 437.6 512 464 512S512 490.4 512 464V260.75C549.75 242.75 576 204.5 576 160V32C576 14.25 561.625 0 544 0ZM480 464C480 472.836 472.836 480 464 480S448 472.836 448 464V352.002C448 340.421 436.079 332.677 425.498 337.382L303.25 391.75C299.635 356.508 277.955 325.963 246.418 311.086C237.137 306.709 226.137 311.574 223.648 321.531C221.782 328.991 225.595 336.465 232.458 339.871C254.839 350.978 272 370.157 272 395.143L272 448H320C337.625 448 352 462.375 352 480L143.981 480C118.504 480 96.295 460.151 96.016 434.675C94.553 301.078 202.735 192 336 192H357.25C371.125 238.125 413.5 272 464 272C469.5 272 474.75 271.125 480 270.375V464ZM544 160C544 204.125 508.125 240 464 240S384 204.125 384 160V32L437.375 96H490.625L544 32V160ZM432 128C423.125 128 416 135.125 416 144S423.125 160 432 160S448 152.875 448 144S440.875 128 432 128ZM480 144C480 152.875 487.125 160 496 160S512 152.875 512 144S504.875 128 496 128S480 135.125 480 144Z"/></svg>

<svg xmlns="http://www.w3.org/2000/svg" viewBox="0 0 576 512"><!--! Font Awesome Pro 6.0.0-alpha3 by @fontawesome - https://fontawesome.com License - https://fontawesome.com/license (Commercial License) --><path d="M544 0c-9.25 0-18.38 4.125-24.62 11.5L475.6 64h-23.25l-43.75-52.5c-9.119-10.79-24.61-14.94-38.63-8.309C358.6 8.584 352 20.88 352 33.5v126.5L336 160C232.1 160 141.9 218.5 96 304.3V176C96 131.9 60.13 96 16 96C7.125 96 0 103.1 0 112S7.125 128 16 128C42.5 128 64 149.5 64 176v256C64 476.2 99.82 512 144 512h207.3c18.32 0 33.12-15.11 32.71-33.43c-.7148-32.36-25.7-58.1-57.36-62.2L416 376.6V464c0 26.4 21.6 48 48 48s48-21.6 48-48V260.8c37.75-18 64-56.25 64-100.7V32C576 14.25 561.6 0 544 0zM480 464c0 8.836-7.164 16-16 16S448 472.8 448 464v-111.1c0-11.58-11.92-19.33-22.5-14.62l-122.2 54.37c-3.615-35.24-25.29-65.79-56.83-80.66c-9.281-4.377-20.28 .4883-22.77 10.45c-1.866 7.46 1.947 14.93 8.81 18.34c22.38 11.11 39.54 30.29 39.54 55.27L272 448H320c17.62 0 32 14.38 32 32l-208 0c-25.48 0-47.69-19.85-47.97-45.32C94.55 301.1 202.7 192 336 192l21.24 .0003C371.1 238.1 413.5 272 464 272c5.5 0 10.75-.8753 16-1.625V464zM544 160c0 44.13-35.88 80-80 80S384 204.1 384 160V32l53.38 64h53.25L544 32V160zM432 128C423.1 128 416 135.1 416 144S423.1 160 432 160S448 152.9 448 144S440.9 128 432 128zM480 144C480 152.9 487.1 160 496 160S512 152.9 512 144S504.9 128 496 128S480 135.1 480 144z"/></svg>
